dist/img/interships/internships_s3_icon_2.svg

<svg width="78" height="77" viewBox="0 0 78 77" fill="none" xmlns="http://www.w3.org/2000/svg">
<g clip-path="url(#clip0_2872_2128)">
<path d="M76.065 0H27.665C26.775 0 26.015 0.75 26.015 1.63C26.015 2.51 26.775 3.26 27.665 3.26H74.545V49.6H27.665C26.775 49.6 26.015 50.35 26.015 51.23C26.015 52.11 26.775 52.86 27.665 52.86H76.065C76.955 52.86 77.715 52.11 77.715 51.23V1.63C77.705 0.75 76.945 0 76.065 0Z" fill="#08090A"/>
<path d="M16.3851 49.47V41.45C16.3851 40.57 15.6251 39.82 14.7351 39.82C13.8451 39.82 13.0851 40.57 13.0851 41.45V49.47C13.0851 50.35 13.8451 51.1 14.7351 51.1C15.6251 51.1 16.3851 50.35 16.3851 49.47Z" fill="#08090A"/>
<path d="M27.665 36.7C28.555 36.7 29.315 35.95 29.315 35.07V30.31H43.885C44.775 30.31 45.535 29.56 45.535 28.68V22.29C45.535 21.41 44.775 20.66 43.885 20.66H25.505C24.115 19.16 22.465 17.91 20.565 17.15C22.845 15.4 24.365 12.64 24.365 9.51001C24.365 4.25001 20.055 -0.00999451 14.735 -0.00999451C9.41504 5.49294e-06 5.10504 4.26001 5.10504 9.52001C5.10504 12.65 6.62504 15.41 8.90504 17.16C3.84504 19.41 0.295044 24.42 0.295044 30.31V35.19C0.295044 36.07 1.05504 36.82 1.94504 36.82H6.63504V49.6C6.63504 50.48 7.39504 51.23 8.28504 51.23C9.17504 51.23 9.93504 50.48 9.93504 49.6V30.31C9.93504 29.43 9.17504 28.68 8.28504 28.68C7.39504 28.68 6.63504 29.43 6.63504 30.31V33.44H3.46504V30.31C3.46504 24.17 8.53504 19.16 14.745 19.16C18.165 19.16 21.465 20.66 23.615 23.29C23.865 23.67 24.375 23.92 24.885 23.92H42.115V27.05H27.535C26.525 27.05 25.765 27.93 25.885 28.8C25.885 29.3 26.015 29.8 26.015 30.18V33.31H22.845V30.18C22.845 29.3 22.085 28.55 21.195 28.55C20.305 28.55 19.545 29.3 19.545 30.18V49.34C19.545 50.22 20.305 50.97 21.195 50.97C22.085 50.97 22.845 50.22 22.845 49.34V36.7H27.665ZM8.27504 9.64001C8.27504 6.13001 11.185 3.25001 14.735 3.25001C18.285 3.25001 21.195 6.13001 21.195 9.64001C21.195 13.15 18.285 16.03 14.735 16.03C11.195 16.03 8.27504 13.15 8.27504 9.64001Z" fill="#08090A"/>
<path d="M30.8251 44.71C30.8251 45.59 31.5851 46.34 32.4751 46.34H66.4351C67.3251 46.34 68.0851 45.59 68.0851 44.71C68.0851 43.83 67.3251 43.08 66.4351 43.08H32.4751C31.5851 43.09 30.8251 43.84 30.8251 44.71Z" fill="#08090A"/>
<path d="M37.295 8.02H34.125V11.15H37.295V8.02Z" fill="#08090A"/>
<path d="M48.575 8.02H45.405V11.15H48.575V8.02Z" fill="#08090A"/>
<path d="M59.845 8.02H56.675V11.15H59.845V8.02Z" fill="#08090A"/>
<path d="M14.615 65C15.755 63.87 16.385 62.37 16.385 60.62C16.385 57.11 13.475 54.23 9.92504 54.23C6.37504 54.23 3.46504 57.11 3.46504 60.62C3.46504 62.37 4.09504 63.88 5.23504 65C2.19504 66.63 0.295044 69.76 0.295044 73.4V75.03C0.295044 75.91 1.05504 76.66 1.94504 76.66H18.035C18.925 76.66 19.685 75.91 19.685 75.03V73.4C19.555 69.89 17.525 66.76 14.615 65ZM6.62504 60.62C6.62504 58.87 8.01504 57.49 9.79504 57.49C11.575 57.49 12.965 58.87 12.965 60.62C12.965 62.37 11.575 63.75 9.79504 63.75C8.15504 63.88 6.62504 62.37 6.62504 60.62ZM3.46504 73.4C3.46504 69.89 6.37504 67.01 9.92504 67.01C13.475 67.01 16.385 69.89 16.385 73.4H3.46504Z" fill="#08090A"/>
<path d="M43.6251 65C44.7651 63.87 45.395 62.37 45.395 60.62C45.395 57.11 42.485 54.23 38.935 54.23C35.385 54.23 32.475 57.11 32.475 60.62C32.475 62.37 33.1051 63.88 34.2451 65C31.2051 66.63 29.175 69.76 29.175 73.39V75.02C29.175 75.9 29.9351 76.65 30.8251 76.65H46.915C47.805 76.65 48.5651 75.9 48.5651 75.02V73.4C48.5651 69.89 46.5451 66.76 43.6251 65ZM35.775 60.62C35.775 58.87 37.1651 57.49 38.9451 57.49C40.7151 57.49 42.115 58.87 42.115 60.62C42.115 62.37 40.7251 63.75 38.9451 63.75C37.1651 63.75 35.775 62.37 35.775 60.62ZM32.475 73.4C32.475 69.89 35.385 67.01 38.935 67.01C42.485 67.01 45.395 69.89 45.395 73.4H32.475Z" fill="#08090A"/>
<path d="M72.6451 65C73.7851 63.87 74.4151 62.37 74.4151 60.62C74.4151 57.11 71.5051 54.23 67.9551 54.23C64.4051 54.23 61.4951 57.11 61.4951 60.62C61.4951 62.37 62.1251 63.88 63.2651 65C60.2251 66.63 58.3251 69.76 58.3251 73.39V75.02C58.3251 75.9 59.0851 76.65 59.9751 76.65H76.0651C76.9551 76.65 77.7151 75.9 77.7151 75.02V73.4C77.7051 69.89 75.6851 66.76 72.6451 65ZM64.7851 60.62C64.7851 58.87 66.1751 57.49 67.9551 57.49C69.7351 57.49 71.1251 58.87 71.1251 60.62C71.1251 62.37 69.7351 63.75 67.9551 63.75C66.1751 63.88 64.7851 62.37 64.7851 60.62ZM61.4951 73.4C61.4951 69.89 64.4051 67.01 67.9551 67.01C71.5051 67.01 74.4151 69.89 74.4151 73.4H61.4951Z" fill="#08090A"/>
</g>
<defs>
<clipPath id="clip0_2872_2128">
<rect width="77.41" height="76.65" fill="white" transform="translate(0.295044)"/>
</clipPath>
</defs>
</svg>

<svg width="78" height="77" viewBox="0 0 78 77" fill="none" xmlns="http://www.w3.org/2000/svg"><g clip-path="url(#clip0_2872_2128)" fill="#08090A"><path d="M76.065 0h-48.4c-.89 0-1.65.75-1.65 1.63 0 .88.76 1.63 1.65 1.63h46.88V49.6h-46.88c-.89 0-1.65.75-1.65 1.63 0 .88.76 1.63 1.65 1.63h48.4c.89 0 1.65-.75 1.65-1.63V1.63c-.01-.88-.77-1.63-1.65-1.63zm-59.68 49.47v-8.02c0-.88-.76-1.63-1.65-1.63-.89 0-1.65.75-1.65 1.63v8.02c0 .88.76 1.63 1.65 1.63.89 0 1.65-.75 1.65-1.63z"/><path d="M27.665 36.7c.89 0 1.65-.75 1.65-1.63v-4.76h14.57c.89 0 1.65-.75 1.65-1.63v-6.39c0-.88-.76-1.63-1.65-1.63h-18.38c-1.39-1.5-3.04-2.75-4.94-3.51 2.28-1.75 3.8-4.51 3.8-7.64 0-5.26-4.31-9.52-9.63-9.52-5.32.01-9.63 4.27-9.63 9.53 0 3.13 1.52 5.89 3.8 7.64-5.06 2.25-8.61 7.26-8.61 13.15v4.88c0 .88.76 1.63 1.65 1.63h4.69V49.6c0 .88.76 1.63 1.65 1.63.89 0 1.65-.75 1.65-1.63V30.31c0-.88-.76-1.63-1.65-1.63-.89 0-1.65.75-1.65 1.63v3.13h-3.17v-3.13c0-6.14 5.07-11.15 11.28-11.15 3.42 0 6.72 1.5 8.87 4.13.25.38.76.63 1.27.63h17.23v3.13h-14.58c-1.01 0-1.77.88-1.65 1.75 0 .5.13 1 .13 1.38v3.13h-3.17v-3.13c0-.88-.76-1.63-1.65-1.63-.89 0-1.65.75-1.65 1.63v19.16c0 .88.76 1.63 1.65 1.63.89 0 1.65-.75 1.65-1.63V36.7h4.82zM8.275 9.64c0-3.51 2.91-6.39 6.46-6.39s6.46 2.88 6.46 6.39-2.91 6.39-6.46 6.39c-3.54 0-6.46-2.88-6.46-6.39zm22.55 35.07c0 .88.76 1.63 1.65 1.63h33.96c.89 0 1.65-.75 1.65-1.63 0-.88-.76-1.63-1.65-1.63h-33.96c-.89.01-1.65.76-1.65 1.63zm6.47-36.69h-3.17v3.13h3.17V8.02zm11.28 0h-3.17v3.13h3.17V8.02zm11.27 0h-3.17v3.13h3.17V8.02zM14.615 65c1.14-1.13 1.77-2.63 1.77-4.38 0-3.51-2.91-6.39-6.46-6.39s-6.46 2.88-6.46 6.39c0 1.75.63 3.26 1.77 4.38-3.04 1.63-4.94 4.76-4.94 8.4v1.63c0 .88.76 1.63 1.65 1.63h16.09c.89 0 1.65-.75 1.65-1.63V73.4c-.13-3.51-2.16-6.64-5.07-8.4zm-7.99-4.38c0-1.75 1.39-3.13 3.17-3.13s3.17 1.38 3.17 3.13-1.39 3.13-3.17 3.13c-1.64.13-3.17-1.38-3.17-3.13zM3.465 73.4c0-3.51 2.91-6.39 6.46-6.39s6.46 2.88 6.46 6.39H3.465zm40.16-8.4c1.14-1.13 1.77-2.63 1.77-4.38 0-3.51-2.91-6.39-6.46-6.39s-6.46 2.88-6.46 6.39c0 1.75.63 3.26 1.77 4.38-3.04 1.63-5.07 4.76-5.07 8.39v1.63c0 .88.76 1.63 1.65 1.63h16.09c.89 0 1.65-.75 1.65-1.63V73.4c0-3.51-2.02-6.64-4.94-8.4zm-7.85-4.38c0-1.75 1.39-3.13 3.17-3.13 1.77 0 3.17 1.38 3.17 3.13s-1.39 3.13-3.17 3.13-3.17-1.38-3.17-3.13zm-3.3 12.78c0-3.51 2.91-6.39 6.46-6.39s6.46 2.88 6.46 6.39h-12.92zm40.17-8.4c1.14-1.13 1.77-2.63 1.77-4.38 0-3.51-2.91-6.39-6.46-6.39s-6.46 2.88-6.46 6.39c0 1.75.63 3.26 1.77 4.38-3.04 1.63-4.94 4.76-4.94 8.39v1.63c0 .88.76 1.63 1.65 1.63h16.09c.89 0 1.65-.75 1.65-1.63V73.4c-.01-3.51-2.03-6.64-5.07-8.4zm-7.86-4.38c0-1.75 1.39-3.13 3.17-3.13s3.17 1.38 3.17 3.13-1.39 3.13-3.17 3.13c-1.78.13-3.17-1.38-3.17-3.13zm-3.29 12.78c0-3.51 2.91-6.39 6.46-6.39s6.46 2.88 6.46 6.39h-12.92z"/></g><defs><clipPath id="clip0_2872_2128"><path fill="#fff" transform="translate(.295)" d="M0 0h77.41v76.65H0z"/></clipPath></defs></svg>
